assets/icons/supported_selectable_icons/logos/financial_institutions/720.svg

<svg xmlns="http://www.w3.org/2000/svg" width="512" height="512" fill="none"><path fill="#FD9CBF" d="M90 331.113c0 8.655 11.505 13.807 29.584 13.807s31.022-5.152 31.022-13.807v-85.108c0-32.559 14.382-46.984 30.201-46.984 12.327 0 24.448 9.479 24.448 32.559v99.533c0 8.655 11.505 13.807 29.584 13.807s31.022-5.152 31.022-13.807v-85.108c0-34.001 15.203-46.984 30.201-46.984 12.327 0 24.448 9.479 24.448 32.559v61.41c0 46.984 24.448 75.01 65.537 75.01 21.572 0 35.953-7.213 35.953-17.31 0-1.443 0-3.709-2.26-5.152-23.832-11.54-38.829-24.522-38.829-62.852V208.5c0-49.869-26.708-64.294-53.211-64.294-31.022 0-47.457 19.577-56.086 33.178-2.876 5.151-10.889 5.151-12.327 0-8.629-25.347-28.762-33.178-48.896-33.178-31.022 0-45.403 19.577-54.032 33.178-2.876 5.151-8.012 2.885-8.012-1.443v-19.577c0-8.036-3.698-12.364-10.067-12.364-2.26 0-4.315.824-6.575 1.443l-30.816 11.127C94.314 158.631 90 165.225 90 175.941z"/></svg>

<svg xmlns="http://www.w3.org/2000/svg" width="512" height="512" viewBox="0 0 512 512" fill="none">
<path d="M90 331.113C90 339.768 101.505 344.92 119.584 344.92C137.663 344.92 150.606 339.768 150.606 331.113V246.005C150.606 213.446 164.988 199.021 180.807 199.021C193.134 199.021 205.255 208.5 205.255 231.58V331.113C205.255 339.768 216.76 344.92 234.839 344.92C252.918 344.92 265.861 339.768 265.861 331.113V246.005C265.861 212.004 281.064 199.021 296.062 199.021C308.389 199.021 320.51 208.5 320.51 231.58V292.99C320.51 339.974 344.958 368 386.047 368C407.619 368 422 360.787 422 350.69C422 349.247 422 346.981 419.74 345.538C395.908 333.998 380.911 321.016 380.911 282.686V208.5C380.911 158.631 354.203 144.206 327.7 144.206C296.678 144.206 280.243 163.783 271.614 177.384C268.738 182.535 260.725 182.535 259.287 177.384C250.658 152.037 230.525 144.206 210.391 144.206C179.369 144.206 164.988 163.783 156.359 177.384C153.483 182.535 148.347 180.269 148.347 175.941V156.364C148.347 148.328 144.649 144 138.28 144C136.02 144 133.965 144.824 131.705 145.443L100.889 156.57C94.3144 158.631 90 165.225 90 175.941V331.113Z" fill="#FD9CBF"/>
</svg>
